public/static/icons/navbar/ic_copy.svg

<svg height="24" viewBox="0 0 24 24" width="24" xmlns="http://www.w3.org/2000/svg"><g transform="translate(2.5 1.5)"><path d="m7.29171754 17.25c-1.95251465 0-3.54171754-1.5892029-3.54171754-3.5417175v-8.54156496h-1.45828246c-1.26419067 0-2.29171754 1.02737426-2.29171754 2.29156492v11.25000004c0 1.2641906 1.02752687 2.2917175 2.29171754 2.2917175h10.41656496c1.2641906 0 2.2917175-1.0275269 2.2917175-2.2917175v-1.4582825z" opacity=".48"/><path d="m18.3332825 2.44449871c0-1.35026042-1.0258484-2.44449871-2.291565-2.44449871h-8.74999996c-1.26586914 0-2.29171754 1.09423829-2.29171754 2.44449871v11.11100259c0 1.3502604 1.0258484 2.4444987 2.29171754 2.4444987h8.74999996c1.2657166 0 2.291565-1.0942383 2.291565-2.4444987z"/></g></svg>

<svg xmlns="http://www.w3.org/2000/svg" width="24" height="24" viewBox="0 0 24 24">
  <g transform="translate(2.5 1.5)">
    <path d="M7.29171754,17.25 C5.33920289,17.25 3.75,15.6607971 3.75,13.7082825 L3.75,5.16671754 L2.29171754,5.16671754 C1.02752687,5.16671754 0,6.1940918 0,7.45828246 L0,18.7082825 C0,19.9724731 1.02752687,21 2.29171754,21 L12.7082825,21 C13.9724731,21 15,19.9724731 15,18.7082825 L15,17.25 L7.29171754,17.25 Z" opacity=".48"/>
    <path d="M18.3332825,2.44449871 C18.3332825,1.09423829 17.3074341,0 16.0417175,0 L7.29171754,0 C6.0258484,0 5,1.09423829 5,2.44449871 L5,13.5555013 C5,14.9057617 6.0258484,16 7.29171754,16 L16.0417175,16 C17.3074341,16 18.3332825,14.9057617 18.3332825,13.5555013 L18.3332825,2.44449871 Z"/>
  </g>
</svg>
